X: 38488
T: Steampacket, The
R: reel
M: 4/4
K: Gmajor
AG G2 AGFD|AG G2 Addc|AG G2 AGFD|F3G Addc|
AG G2 AGFD|AG G2 Addc|(3AcA GB AGFD|F3G ABcA||
dg g2 ag g2|dg g2 fdcA|dg g2 ag g2|dcde fdcA|
dg g2 ag (3efg|abag f3g|af (3gfe fdec|dfeg fdcA||

